X: 18996
T: Innocent Child, The
R: reel
M: 4/4
K: Cmajor
|:ec ~c2 GFDB,|C2 EG c3 d|~e3 f dcBG|c2 dc BGcd|
ec ~c2 GFDB,|C2 EG c3 d|~e3 f dcBG|1 c2 dB c3 d:|2 c2 dB cdef||
|:g2 ^fg ec ~c2|Gceg agfe|f2 ef d_B ~B2|F_Bdf agef|
g2 ^fg ec ~c2|Gceg agfe|fedc Bdgf|1 ecdB cdef:|2 ecdB c3 d||

